packages/tokens/icons/thoughtLeadership/size16Px.svg

<svg viewBox="0 0 16 16" fill="none" xmlns="http://www.w3.org/2000/svg" width="1em" height="1em"><path d="M12.5 13.5H13.5001C14.0523 13.5 14.5001 13.9477 14.5001 14.5V14.5" stroke="currentColor" stroke-linecap="round"/><circle cx="1" cy="1" r="0.5" transform="matrix(-1 0 0 1 13 10)" stroke="currentColor"/><path d="M3.5 13.5H2.5C1.94772 13.5 1.5 13.9477 1.5 14.5V14.5" stroke="currentColor" stroke-linecap="round"/><circle cx="4" cy="11" r="0.5" stroke="currentColor"/><path d="M10.5 14.3334V14.3334C10.5 13.3208 9.67918 12.5 8.66666 12.5L7.33333 12.5C6.32081 12.5001 5.5 13.3209 5.5 14.3334V14.3334" stroke="currentColor" stroke-linecap="round"/><circle cx="8" cy="9.75" r="1.25" stroke="currentColor"/><path d="M7.61905 6.25C7.61905 6.46039 7.78694 6.63095 7.99405 6.63095C8.20116 6.63095 8.36905 6.46039 8.36905 6.25" stroke="currentColor" stroke-linecap="round" stroke-linejoin="round"/><path d="M7.58366 4.83709L7.58366 4.83708L7.56386 4.80446C7.56386 4.80446 7.56386 4.80446 7.56386 4.80446C7.42848 4.58138 7.2462 4.41834 7.0933 4.29766L6.78352 4.69014L7.0933 4.29766C6.73439 4.01438 6.5 3.56614 6.5 3.05714C6.5 2.18379 7.18476 1.5 8 1.5C8.81524 1.5 9.5 2.18379 9.5 3.05714C9.5 3.56614 9.26561 4.01438 8.9067 4.29766C8.7538 4.41834 8.57151 4.58139 8.43614 4.80446L8.81824 5.03635L8.43614 4.80446L8.41634 4.83709C8.32804 4.98258 8.17019 5.07143 8 5.07143C7.82981 5.07143 7.67196 4.98258 7.58366 4.83709Z" stroke="currentColor"/></svg>

<svg xmlns="http://www.w3.org/2000/svg" fill="none" viewBox="0 0 16 16" width="1em" height="1em"><path stroke="currentColor" stroke-linecap="round" d="M12.5 13.5h1a1 1 0 0 1 1 1v0"/><circle cx="1" cy="1" r=".5" stroke="currentColor" transform="matrix(-1 0 0 1 13 10)"/><path stroke="currentColor" stroke-linecap="round" d="M3.5 13.5h-1a1 1 0 0 0-1 1v0"/><circle cx="4" cy="11" r=".5" stroke="currentColor"/><path stroke="currentColor" stroke-linecap="round" d="M10.5 14.333v0c0-1.012-.82-1.833-1.833-1.833H7.333c-1.012 0-1.833.82-1.833 1.833v0"/><circle cx="8" cy="9.75" r="1.25" stroke="currentColor"/><path stroke="currentColor" stroke-linecap="round" stroke-linejoin="round" d="M7.619 6.25c0 .21.168.381.375.381s.375-.17.375-.381"/><path stroke="currentColor" d="m7.584 4.837-.02-.033a1.939 1.939 0 0 0-.47-.506l-.31.392.31-.392a1.575 1.575 0 0 1-.594-1.24C6.5 2.183 7.185 1.5 8 1.5s1.5.684 1.5 1.557c0 .51-.234.957-.593 1.24a1.937 1.937 0 0 0-.47.507l.381.232-.382-.232-.02.033a.487.487 0 0 1-.832 0Z"/></svg>
